X: 469
T: Mai Cai
L: 1/8
M: 2/4
K: Eb
c c c f [I:setbarnb 1]| 
c B c/ B/ G/ B/ | 
c4 | 
F G B c | 
B GF2 | 
F F B c | 
B FB2 | 
E CB,2 | 
c B F F | 
B, C E F | 
E CB,2 |]

@@@ Tune index: 9343
